img/mdi_cloud-download.svg

<svg fill="none" height="24" viewBox="0 0 34 24" width="34" xmlns="http://www.w3.org/2000/svg"><path d="m17 13-5 5-5-5h3v-4h4v4zm2.35-2.97c-.3379-1.70044-1.2553-3.23099-2.5957-4.33062-1.3403-1.09963-3.0206-1.70023-4.7543-1.69938-2.89 0-5.4 1.64-6.65 4.03-1.47062.16115-2.82996.85959-3.81729 1.96134-.987336 1.10176-1.53313493 2.52926-1.53270975 4.00866 0 1.5913.63214075 3.1174 1.75735975 4.2426 1.12522 1.1253 2.65134 1.7574 4.24264 1.7574h13c.6566 0 1.3068-.1293 1.9134-.3806s1.1578-.6196 1.6221-1.0839.8326-1.0155 1.0839-1.6221.3806-1.2568.3806-1.9134c0-2.64-2.05-4.78-4.65-4.97z" fill="#fff"/></svg>

<svg width="34" height="24" viewBox="0 0 34 24" fill="none" xmlns="http://www.w3.org/2000/svg">
<path d="M17 13L12 18L7 13H10V9H14V13H17ZM19.35 10.03C19.0121 8.32956 18.0947 6.79901 16.7543 5.69938C15.414 4.59975 13.7337 3.99915 12 4C9.11 4 6.6 5.64 5.35 8.03C3.87938 8.19115 2.52004 8.88959 1.53271 9.99134C0.545374 11.0931 -0.000424928 12.5206 2.48222e-07 14C2.48222e-07 15.5913 0.632141 17.1174 1.75736 18.2426C2.88258 19.3679 4.4087 20 6 20H19C19.6566 20 20.3068 19.8707 20.9134 19.6194C21.52 19.3681 22.0712 18.9998 22.5355 18.5355C22.9998 18.0712 23.3681 17.52 23.6194 16.9134C23.8707 16.3068 24 15.6566 24 15C24 12.36 21.95 10.22 19.35 10.03Z" fill="white"/>
</svg>
